dist/img/build.svg

<svg id="Слой_1" xmlns="http://www.w3.org/2000/svg" viewBox="0 0 78 128"><style>.st0{fill:none;stroke:#ee3324;stroke-width:2;stroke-linecap:round;stroke-linejoin:round}</style><title>logo-enterprise</title><g id="Page-1"><g id="homepage-v3.5" transform="translate(-661 -3406)"><g id="_features" transform="translate(169 2549)"><g id="features-enterprise" transform="translate(1 858)"><g id="blurb" transform="translate(20)"><g id="logo" transform="translate(135)"><path id="logo-enterprise" class="st0" d="M367 47.4V16l9-5.2 9 5.2v21l9 5.2v20.9m-36 7.7V52.7l9-5.2m-9 47l9 5.2v10.5m-27.1-11V84l9-5.2 9 5.2v10.5m9.1-47.1v41.9-41.9zm0-31.4l9 5.2 9-5.2m-9 0V.3 16zm0 5.2v98.6-98.6zm9.1 15.8v18.4V37zm9 65.7V73.6v29.1zm-38.8-29.2c0 1.5 1.2 2.7 2.7 2.7 1.5 0 2.7-1.2 2.7-2.7 0-1.5-1.2-2.7-2.7-2.7-1.5 0-2.7 1.2-2.7 2.7zM385 86.6c-1.5 0-2.7 1.2-2.7 2.7 0 1.5 1.2 2.7 2.7 2.7 1.5 0 2.7-1.2 2.7-2.7.1-1.5-1.2-2.7-2.7-2.7zm-45.1 12.6c-1.5 0-2.7 1.2-2.7 2.7 0 1.5 1.2 2.7 2.7 2.7s2.7-1.2 2.7-2.7c0-1.4-1.2-2.7-2.7-2.7zm36.1 20.6c-1.5 0-2.7 1.2-2.7 2.7 0 1.5 1.2 2.7 2.7 2.7 1.5 0 2.7-1.2 2.7-2.7 0-1.4-1.2-2.7-2.7-2.7zm18.1-17.1c-1.5 0-2.7 1.2-2.7 2.7 0 1.5 1.2 2.7 2.7 2.7s2.7-1.2 2.7-2.7c0-1.4-1.2-2.7-2.7-2.7zm-9-47.4c-1.5 0-2.7 1.2-2.7 2.7 0 1.5 1.2 2.7 2.7 2.7 1.5 0 2.7-1.2 2.7-2.7 0-1.4-1.2-2.7-2.7-2.7zm27.1 49.7V94.5l-9-5.2V68.4l-9-5.2-9.1 5.3v18.2m-45.2-2.6l9 5.2 9-5.2m-9 5.2v20.9-20.9zm0-5.2V68.4v15.7zm42.5 22.5l-6.3 3.6 6.3-3.6z"/></g></g></g></g></g></g></svg>

<?xml version="1.0" encoding="utf-8"?>
<!-- Generator: Adobe Illustrator 21.1.0, SVG Export Plug-In . SVG Version: 6.00 Build 0)  -->
<svg version="1.1" id="Слой_1" xmlns:sketch="http://www.bohemiancoding.com/sketch/ns"
	 xmlns="http://www.w3.org/2000/svg" xmlns:xlink="http://www.w3.org/1999/xlink" x="0px" y="0px" viewBox="0 0 78 128"
	 style="enable-background:new 0 0 78 128;" xml:space="preserve">
<style type="text/css">
	.st0{fill:none;stroke:#EE3324;stroke-width:2;stroke-linecap:round;stroke-linejoin:round;}
</style>
<title>logo-enterprise</title>
<desc>Created with Sketch.</desc>
<g id="Page-1" sketch:type="MSPage">
	<g id="homepage-v3.5" transform="translate(-661.000000, -3406.000000)" sketch:type="MSArtboardGroup">
		<g id="_features" transform="translate(169.000000, 2549.000000)" sketch:type="MSLayerGroup">
			<g id="features-enterprise" transform="translate(1.000000, 858.000000)" sketch:type="MSShapeGroup">
				<g id="blurb" transform="translate(20.000000, 0.000000)">
					<g id="logo" transform="translate(135.000000, 0.000000)">
						<path id="logo-enterprise" class="st0" d="M367,47.4V16l9-5.2l9,5.2V37l9,5.2l0,20.9 M358,70.8V52.7l9-5.2 M358,94.5l9,5.2
							v10.5 M339.9,99.2l0-15.2l9-5.2l9,5.2l0,10.5 M367,47.4v41.9V47.4z M367,16l9,5.2l9-5.2 M376,16V0.3V16z M376,21.2v98.6V21.2z
							 M385.1,37v18.4V37z M394.1,102.7l0-29.1L394.1,102.7z M355.3,73.5c0,1.5,1.2,2.7,2.7,2.7c1.5,0,2.7-1.2,2.7-2.7
							c0-1.5-1.2-2.7-2.7-2.7C356.5,70.8,355.3,72,355.3,73.5z M385,86.6c-1.5,0-2.7,1.2-2.7,2.7c0,1.5,1.2,2.7,2.7,2.7
							c1.5,0,2.7-1.2,2.7-2.7C387.8,87.8,386.5,86.6,385,86.6L385,86.6z M339.9,99.2c-1.5,0-2.7,1.2-2.7,2.7c0,1.5,1.2,2.7,2.7,2.7
							s2.7-1.2,2.7-2.7C342.6,100.5,341.4,99.2,339.9,99.2L339.9,99.2z M376,119.8c-1.5,0-2.7,1.2-2.7,2.7c0,1.5,1.2,2.7,2.7,2.7
							c1.5,0,2.7-1.2,2.7-2.7C378.7,121.1,377.5,119.8,376,119.8L376,119.8z M394.1,102.7c-1.5,0-2.7,1.2-2.7,2.7
							c0,1.5,1.2,2.7,2.7,2.7s2.7-1.2,2.7-2.7C396.8,104,395.6,102.7,394.1,102.7L394.1,102.7z M385.1,55.3c-1.5,0-2.7,1.2-2.7,2.7
							c0,1.5,1.2,2.7,2.7,2.7c1.5,0,2.7-1.2,2.7-2.7C387.8,56.6,386.6,55.3,385.1,55.3L385.1,55.3z M412.2,105V94.5l-9-5.2l0-20.9
							l-9-5.2l-9.1,5.3v18.2 M339.9,84.1l9,5.2l9-5.2 M348.9,89.3l0,20.9L348.9,89.3z M348.9,84.1l0-15.7L348.9,84.1z M391.4,106.6
							l-6.3,3.6L391.4,106.6z"/>
					</g>
				</g>
			</g>
		</g>
	</g>
</g>
</svg>
